shader_type spatial;

uniform vec3 sphere_color = vec3(1.0);
uniform sampler2D my_texture;

void vertex() {
	// Called for every vertex the material is visible on.
}

void fragment() {
	vec2 adjusted_uv = UV * 5.0;
	adjusted_uv.y += sin(adjusted_uv.x * 50.0 + TIME * 10.0) * 0.02;
	vec4 texture_color = texture(my_texture, adjusted_uv);
	
	ALBEDO = texture_color.rgb;
	ALPHA = 1.0;
}
